icons/solid/code.svg

<svg width="24" height="24" viewBox="0 0 24 24" fill="none" xmlns="http://www.w3.org/2000/svg">
<path fill-rule="evenodd" clip-rule="evenodd" d="M5 1C2.79086 1 1 2.79086 1 5V19C1 21.2091 2.79086 23 5 23H19C21.2091 23 23 21.2091 23 19V5C23 2.79086 21.2091 1 19 1H5ZM14.9615 6.27473C15.1132 5.7437 14.8058 5.19021 14.2747 5.03849C13.7437 4.88677 13.1902 5.19426 13.0385 5.72529L9.03848 17.7253C8.88675 18.2563 9.19424 18.8098 9.72528 18.9615C10.2563 19.1133 10.8098 18.8058 10.9615 18.2747L14.9615 6.27473ZM7.70711 9.70712C8.09763 9.3166 8.09763 8.68343 7.70711 8.29291C7.31658 7.90238 6.68342 7.90238 6.29289 8.29291L3.29289 11.2929C2.90237 11.6834 2.90237 12.3166 3.29289 12.7071L6.29289 15.7071C6.68342 16.0976 7.31658 16.0976 7.70711 15.7071C8.09763 15.3166 8.09763 14.6834 7.70711 14.2929L5.41421 12L7.70711 9.70712ZM17.7071 8.29291C17.3166 7.90238 16.6834 7.90238 16.2929 8.29291C15.9024 8.68343 15.9024 9.3166 16.2929 9.70712L18.5858 12L16.2929 14.2929C15.9024 14.6834 15.9024 15.3166 16.2929 15.7071C16.6834 16.0976 17.3166 16.0976 17.7071 15.7071L20.7071 12.7071C21.0976 12.3166 21.0976 11.6834 20.7071 11.2929L17.7071 8.29291Z" fill="currentColor"/>
</svg>

<svg width="24" height="24" fill="none" xmlns="http://www.w3.org/2000/svg"><path fill-rule="evenodd" clip-rule="evenodd" d="M5 1a4 4 0 00-4 4v14a4 4 0 004 4h14a4 4 0 004-4V5a4 4 0 00-4-4H5zm9.961 5.275a1 1 0 10-1.922-.55l-4 12a1 1 0 101.922.55l4-12zM7.707 9.707a1 1 0 00-1.414-1.414l-3 3a1 1 0 000 1.414l3 3a1 1 0 001.414-1.414L5.414 12l2.293-2.293zm10-1.414a1 1 0 10-1.414 1.414L18.586 12l-2.293 2.293a1 1 0 001.414 1.414l3-3a1 1 0 000-1.414l-3-3z" fill="currentColor"/></svg>
